beta/v2.0.12/images/charts.svg

<svg xmlns="http://www.w3.org/2000/svg" width="76" height="76" xml:space="preserve">﻿
  ﻿<path fill="#000000" fill-opacity="1" stroke-width="0.2" stroke-linejoin="round" d="M 15.8332,47.5002L 15.8332,40.1901L 25.3332,31.6669L 30.0832,36.4169L 34.8331,20.5836L 44.3331,31.6669L 50.6664,25.3336L 45.9164,20.5836L 58.583,20.5836L 58.583,33.2502L 53.8331,28.5003L 44.3331,38.0002L 36.4165,28.5003L 31.6665,44.3335L 25.3332,38.0002L 15.8332,47.5002 Z "></path>	<path fill="#000000" fill-opacity="1" stroke-width="0.2" stroke-linejoin="round" d="M 58.5833,55.4167L 53.8333,55.4167L 53.8333,34.8333L 58.5833,39.5833L 58.5833,55.4167 Z M 49.0833,55.4167L 44.3333,55.4167L 44.3333,44.3333L 49.0833,39.5834L 49.0833,55.4167 Z M 39.5833,55.4167L 34.8333,55.4167L 34.8333,45.9167L 37.2083,36.4167L 39.5833,39.5833L 39.5833,55.4167 Z M 30.0833,55.4167L 25.3333,55.4167L 25.3333,44.3333L 30.0833,49.0833L 30.0833,55.4167 Z M 20.5833,55.4167L 15.8333,55.4167L 15.8333,53.8334L 20.5833,49.0834L 20.5833,55.4167 Z "></path></svg>

<svg xmlns="http://www.w3.org/2000/svg" width="76" height="76"><path d="M15.833 47.5v-7.31l9.5-8.523 4.75 4.75 4.75-15.833 9.5 11.083 6.333-6.333-4.75-4.75h12.667V33.25l-4.75-4.75-9.5 9.5-7.916-9.5-4.75 15.834L25.332 38l-9.5 9.5z"/><path d="M58.583 55.417h-4.75V34.833l4.75 4.75v15.834zm-9.5 0h-4.75V44.333l4.75-4.75v15.834zm-9.5 0h-4.75v-9.5l2.375-9.5 2.375 3.166v15.834zm-9.5 0h-4.75V44.333l4.75 4.75v6.334zm-9.5 0h-4.75v-1.584l4.75-4.75v6.334z"/></svg>
